packages/icons/src/components/Flags/assets/default/denmark.svg

<svg width="24" height="24" viewBox="0 0 24 24" fill="none" xmlns="http://www.w3.org/2000/svg">
<g>
<path d="M12 24C18.6274 24 24 18.6274 24 12C24 5.37258 18.6274 0 12 0C5.37258 0 0 5.37258 0 12C0 18.6274 5.37258 24 12 24Z" fill="#F0F0F0"/>
<path d="M9.39122 10.4348H23.8983C23.1313 4.54697 18.0968 0 11.9999 0C11.1038 0 10.2312 0.0990469 9.39117 0.285234V10.4348H9.39122Z" fill="#D80027"/>
<path d="M6.26084 10.4348V1.45911C2.96586 3.25695 0.607016 6.55465 0.101562 10.4348H6.26084V10.4348Z" fill="#D80027"/>
<path d="M6.2608 13.5652H0.101562C0.607016 17.4454 2.96586 20.7431 6.26084 22.5409L6.2608 13.5652Z" fill="#D80027"/>
<path d="M9.39117 13.5652V23.7147C10.2312 23.9009 11.1038 24 11.9999 24C18.0968 24 23.1313 19.453 23.8983 13.5652H9.39117V13.5652Z" fill="#D80027"/>
</g>
<defs>
<clipPath id="clip0_3072_206">
<rect width="24" height="24" fill="white"/>
</clipPath>
</defs>
</svg>

<svg xmlns="http://www.w3.org/2000/svg" width="24" height="24" fill="none" viewBox="0 0 24 24">
    <path fill="#f0f0f0" d="M12 24c6.627 0 12-5.373 12-12S18.627 0 12 0 0 5.373 0 12s5.373 12 12 12"/>
    <path fill="#d80027" d="M9.391 10.435h14.507C23.131 4.547 18.097 0 12 0c-.896 0-1.769.099-2.609.285zm-3.131 0V1.459a12 12 0 0 0-6.158 8.976zm0 3.13H.103a12 12 0 0 0 6.159 8.976zm3.131 0v10.15c.84.186 1.713.285 2.609.285 6.097 0 11.131-4.547 11.898-10.435z"/>
</svg>
